!!!OTL:
!!!ONR: No. 15
!! From Madeleine Beland,
!! "Chansons de Voyageurs, Coureurs de Bois et Forestiers"
!! Quebec: Les Presses de l'universite/ Laval, 1982
!! ISBN 2-7637-6942-X
**kern
*clefG2
*k[c#]
*M3/4
8e
8a
8b
=
(16cc#
16dd
4cc#)
8dd
8cc#
8b
*M2/4
=
8a
8b
8cc#
8dd
*M3/4
=
4.ee
8ee
8dd
8dd
=
8cc#
4r
8e
8a
8b
=
4.cc#
8dd
8cc#
8b
*M2/4
=
8.a
16b
8cc#
8dd
*M3/4
=
4.ee
8ee
8dd
8dd
=
8cc#
4r
8cc#
8a
8cc#
=
(4ee
8cc#)
8cc#
8b
8cc#
=
8dd
4r
8dd
8cc#
8a
=
4.cc#
8ee
8dd
8cc#
=
8b
4r
8b
8cc#
8dd
*M5/8
=
8ee
8cc#
8cc#
8b
8cc#
=
8dd
8r
8dd
8cc#
8a
*M3/4
=
16cc#
16b
16cc#
16b
8a
8cc#
8b
8b
=
4.a;
4r
8r
==
*-
